X:0991
T:Dear to me is my Hero.
M:C
L:1/8
Q:1/4=120
I: :: :|
Z:Jack Campin * www.campin.me.uk * 2009
K:E Dorian
B<BB>d c>Bd2|F<FF>A F>ED2|B<BB>B d<ded |e<ff>e c2 BA |
B>Bd2  F>AD2|B>Bd>e c2 B2|B>Bd2  F>AD2 |A<AF>A B2 E2:|
e<ee>f ed e2|de`fe  dB A2|B>Bd>c e<ef>e|d<BB>A F2 E2 |
B<BB2  F>AD2|A<AB>A F2 E2|B<Bd2  F>AD2 |A<AF>A F>BE2:|

